X:4
T:Erinnerungen an Glarus (Marsch)  BbAb (5letras) cf. GF 2+
M:2/4
L:1/8
K:Bbmaj%%MIDI gchordon
"Bb"b2b>c' | d'b fB/2d/2 | "F7"ff f/2^f/2g/2a/2 | "Bb".b2zb/2g/2 |: "Cm/Eb"ba/2a/2 ae | "F7"a3a/2e/2 | "Bb"gf/2f/2 fd | 
f3g/2d/2 | "F7".e!>!e2.f | ga bc' | "Bb"d'2 b>g | f2zb/2g/2 | "Cm/Eb"ba/2a/2 ae | "F7"a3a/2e/2 | "Bb"gf/2f/2 fd | 
f2z((3f/2=e/2d/2) | "F"c2 c'>=b | .d' !>!c'2b/2a/2 | "C7"ag b=e |1 "F"ff/2f/2 fb/2g/2 :|2 "F"ff g>f |: "F7"f3g | 
ab c'^c' | "Bb".d'2 (!>!b2 | b)d e>d | "D7"d3=e | ^fg ab | "Gm".c'2 (!>!b2 | b)b ab | "Eb"c'2b2 | 
a2g2 | "Bb"(f4 | f)f =ef | "F7"a3g | "D7"^fe dc | "Gm".c2(!>!B2 | "Bb7"B)b ab | "Eb"c'2b2 | 
"Cm"a2g2 | "Bb/F"fd' (b2 | b)b ag | "F7"f3f/2^f/2 | ag ec | "Bb"B2 b>b |1 bf g>f :|2 "Eb7"b2z2 || [K:Abmaj] 
"Ab"ee/2e/2 ee | ecc2 | ec' b/2a/2g/2f/2 | "Eb7"e2.d2 | gg/2g/2 gg | gee2 | gf/2f/2 fe/2e/2 | e3d | 
"Ab"ee/2e/2 ee | ecc2 | ea/2g/2 ag | "Db"g2.f2 | d'3c'/2b/2 | "Ab/Eb"c'3b/2a/2 | "Eb7".a !>!g2 f/2g/2 | "Ab"aa a2 |] 

